public/static/img/assets/deposit.svg

<svg xmlns="http://www.w3.org/2000/svg" width="24" height="24" viewBox="0 0 24 24" fill="none">
  <path d="M22.0049 10V20C22.0049 20.5523 21.5572 21 21.0049 21H3.00488C2.4526 21 2.00488 20.5523 2.00488 20V10H22.0049ZM22.0049 8H2.00488V4C2.00488 3.44771 2.4526 3 3.00488 3H21.0049C21.5572 3 22.0049 3.44771 22.0049 4V8ZM15.0049 16V18H19.0049V16H15.0049Z" fill="#00A609"/>
  <path d="M15.0049 16V18H19.0049V16H15.0049Z" fill="white"/>
  <path d="M11 16V18H14V16H11Z" fill="white"/>
</svg>

<svg xmlns="http://www.w3.org/2000/svg" width="24" height="24" fill="none"><path d="M22.005 10v10a1 1 0 0 1-1 1h-18a1 1 0 0 1-1-1V10h20Zm0-2h-20V4a1 1 0 0 1 1-1h18a1 1 0 0 1 1 1v4Zm-7 8v2h4v-2h-4Z" fill="#00A609"/><path d="M15.005 16v2h4v-2h-4ZM11 16v2h3v-2h-3Z" fill="#fff"/></svg>
